src/lib/packages/icons/src/assets/filled/location-pin-slash.svg

<svg width="24" height="24" viewBox="0 0 24 24" fill="none" xmlns="http://www.w3.org/2000/svg">
<path d="M20.5 11C20.5 15.983 15.871 19.041 12.808 21.064L12.278 21.416C12.194 21.472 12.097 21.5 12.001 21.5C11.905 21.5 11.809 21.473 11.726 21.417L11.42 21.2161C10.602 20.6781 9.67399 20.0679 8.73899 19.3579C8.62399 19.2709 8.552 19.1379 8.542 18.9939C8.532 18.8499 8.585 18.709 8.688 18.607L19.218 8.07693C19.339 7.95493 19.512 7.90414 19.684 7.94314C19.851 7.98214 19.988 8.10411 20.044 8.26711C20.346 9.14511 20.5 10.064 20.5 11ZM21.53 3.53005L3.52999 21.5301C3.38399 21.6761 3.19199 21.75 2.99999 21.75C2.80799 21.75 2.61599 21.6771 2.46999 21.5301C2.17699 21.2371 2.17699 20.762 2.46999 20.469L6.01699 16.9221C4.33099 15.0661 3.501 13.12 3.501 10.999C3.501 6.30905 7.311 2.49905 12.001 2.49905C14.259 2.49905 16.39 3.39497 17.968 4.97097L20.471 2.46804C20.764 2.17504 21.239 2.17504 21.532 2.46804C21.825 2.76104 21.823 3.23705 21.53 3.53005ZM10.208 12.732L13.732 9.20803C13.279 8.77303 12.671 8.50002 12 8.50002C10.62 8.50002 9.49999 9.62002 9.49999 11C9.49999 11.671 9.77299 12.278 10.208 12.732Z" fill="currentColor"/>
</svg>

<svg xmlns="http://www.w3.org/2000/svg" width="24" height="24" fill="none"><path fill="currentColor" d="M20.5 11c0 4.983-4.629 8.041-7.692 10.064l-.53.352a.5.5 0 0 1-.552.001l-.306-.2c-.818-.539-1.746-1.15-2.681-1.86a.5.5 0 0 1-.051-.75l10.53-10.53a.501.501 0 0 1 .826.19c.302.878.456 1.797.456 2.733Zm1.03-7.47-18 18a.748.748 0 0 1-1.06 0 .75.75 0 0 1 0-1.061l3.547-3.547C4.331 15.066 3.501 13.12 3.501 11c0-4.69 3.81-8.5 8.5-8.5 2.258 0 4.389.896 5.967 2.472l2.503-2.503A.75.75 0 1 1 21.53 3.53Zm-11.322 9.202 3.524-3.524A2.496 2.496 0 0 0 12 8.5 2.5 2.5 0 0 0 9.5 11c0 .671.273 1.278.708 1.732Z"/></svg>
